Newaita-dark/apps/64/com.github.kmal-kenneth.monilet.svg

<svg height="64" viewBox="0 0 64 64" width="64" xmlns="http://www.w3.org/2000/svg" xmlns:xlink="http://www.w3.org/1999/xlink"><linearGradient id="a" gradientUnits="userSpaceOnUse" x1="31.75304" x2="31.75304" y1="56.067872" y2="58.71396000006"><stop offset="0" stop-opacity=".27451"/><stop offset="1" stop-opacity="0"/></linearGradient><linearGradient id="b"><stop offset="0" stop-opacity=".313726"/><stop offset=".222222" stop-opacity=".27451"/><stop offset="1" stop-opacity="0"/></linearGradient><radialGradient id="c" cx="450.908936" cy="189.579361" gradientTransform="matrix(.00000035 -.156265 -.281277 -.0000002 104.261296 127.190665)" gradientUnits="userSpaceOnUse" r="21.166656" xlink:href="#b"/><radialGradient id="d" cx="450.908936" cy="189.579361" gradientTransform="matrix(-.00000035 .156265 .281277 .0000002 -40.755227 -15.054958)" gradientUnits="userSpaceOnUse" r="21.166656" xlink:href="#b"/><radialGradient id="e" cx="450.908936" cy="189.579361" gradientTransform="matrix(-.00000035 -.156265 .281277 -.0000002 -40.755227 127.190665)" gradientUnits="userSpaceOnUse" r="21.166656" xlink:href="#b"/><radialGradient id="f" cx="450.908936" cy="189.579361" gradientTransform="matrix(.00000035 .156265 -.281277 .0000002 104.261293 -15.054959)" gradientUnits="userSpaceOnUse" r="21.166656" xlink:href="#b"/><linearGradient id="g" gradientUnits="userSpaceOnUse" x1="21.16869799994" x2="21.16869799994" y1="56.067868" y2="5.79221000013"><stop offset="0" stop-color="#424242"/><stop offset="1" stop-color="#616161"/></linearGradient><path d="m11.90625 55.871094h39.691406v2.941406h-39.691406zm0 0" fill="url(#a)"/><path d="m51.597656 56.066406h5.292969v-2.644531h-5.292969zm0 0" fill="url(#c)"/><path d="m11.90625 56.066406h-5.292969v2.648438h5.292969zm0 0" fill="url(#d)"/><path d="m11.90625 56.066406h-5.292969v-2.644531h5.292969zm0 0" fill="url(#e)"/><path d="m51.597656 56.066406h5.292969v2.648438h-5.292969zm0 0" fill="url(#f)"/><path d="m9.261719 5.792969h44.984375c1.460937 0 2.644531 1.183593 2.644531 2.644531v44.984375c0 1.460937-1.183594 2.644531-2.644531 2.644531h-44.984375c-1.460938 0-2.648438-1.183594-2.648438-2.644531v-44.984375c0-1.460938 1.1875-2.644531 2.648438-2.644531zm0 0" fill="url(#g)"/><path d="m9.261719 5.792969c-1.464844 0-2.648438 1.179687-2.648438 2.644531v.332031c0-1.464843 1.183594-2.648437 2.648438-2.648437h44.984375c1.464844 0 2.644531 1.183594 2.644531 2.648437v-.332031c0-1.464844-1.179687-2.644531-2.644531-2.644531zm0 0" fill="#e6e6e6" fill-opacity=".392157"/><path d="m9.261719 56.066406c-1.464844 0-2.648438-1.179687-2.648438-2.644531v-.332031c0 1.46875 1.183594 2.648437 2.648438 2.648437h44.984375c1.464844 0 2.644531-1.179687 2.644531-2.648437v.332031c0 1.464844-1.179687 2.644531-2.644531 2.644531zm0 0" fill-opacity=".196078"/><path d="m74.086675-168.660675h359.840637c11.686384 0 21.15423 9.467846 21.15423 21.15423v359.840637c0 11.686384-9.467846 21.154229-21.15423 21.154229h-359.840637c-11.686384 0-21.185477-9.467845-21.185477-21.154229v-359.840637c0-11.686384 9.499093-21.15423 21.185477-21.15423zm0 0" fill="none" stroke="#212121" stroke-linecap="round" stroke-width="3" transform="matrix(.125012 0 0 .125012 0 26.877566)"/><path d="m31.753906 13.75c-9.472656 0-17.179687 7.707031-17.179687 17.179688 0 .109374 0 .21875.003906.328124.167969-9.328124 7.808594-16.867187 17.175781-16.867187 9.367188 0 17.007813 7.539063 17.175782 16.867187 0-.109374.003906-.21875.003906-.328124 0-9.472657-7.707032-17.179688-17.179688-17.179688zm-11.925781 17.492188c0 .109374-.003906.21875-.003906.328124 0 4.683594 2.640625 8.667969 6.503906 10.632813.792969.390625 1.335937 1.15625 1.445313 2.03125.132812-1.105469-.445313-2.179687-1.445313-2.671875-3.777344-1.921875-6.382813-5.773438-6.5-10.320312zm23.847656 0c-.113281 4.546874-2.722656 8.398437-6.5 10.320312-.996093.492188-1.574219 1.5625-1.441406 2.667969.109375-.875.652344-1.636719 1.441406-2.027344 3.867188-1.964844 6.503907-5.949219 6.503907-10.632813 0-.109374 0-.21875-.003907-.328124zm0 0" fill-opacity=".235294"/><path d="m31.753906 13.75c-9.472656 0-17.179687 7.707031-17.179687 17.179688 0 6.667968 3.800781 12.476562 9.371093 15.3125.839844.441406 1.847657.394531 2.644532-.117188s1.253906-1.414062 1.199218-2.355469c-.054687-.945312-.613281-1.789062-1.460937-2.207031-3.863281-1.964844-6.503906-5.949219-6.503906-10.632812 0-6.652344 5.273437-11.929688 11.929687-11.929688 6.652344 0 11.925782 5.277344 11.925782 11.929688 0 4.683593-2.636719 8.667968-6.503907 10.632812-.847656.417969-1.40625 1.261719-1.460937 2.207031-.054688.941407.40625 1.84375 1.203125 2.355469.792969.511719 1.804687.558594 2.640625.117188 5.574218-2.835938 9.375-8.644532 9.375-15.3125 0-9.472657-7.707032-17.179688-17.179688-17.179688zm0 0" fill-opacity=".235294"/><path d="m31.753906 13.75c-9.472656 0-17.179687 7.707031-17.179687 17.179688 0 6.667968 3.800781 12.476562 9.371093 15.3125.839844.441406 1.847657.394531 2.644532-.117188s1.253906-1.414062 1.199218-2.355469c-.054687-.945312-.613281-1.789062-1.460937-2.207031-3.863281-1.964844-6.503906-5.949219-6.503906-10.632812 0-6.652344 5.273437-11.929688 11.929687-11.929688.945313.015625 1.828125-.480469 2.304688-1.300781.480468-.816407.480468-1.828125 0-2.648438-.476563-.816406-1.359375-1.3125-2.304688-1.300781zm0 0" fill="#26a69a"/><path d="m31.753906 19.089844c-6.480468 0-11.65625 5.007812-11.917968 11.414062-.003907-.0625-.003907-.125-.007813-.183594 0 .113282-.003906.226563-.003906.339844 0 .171875.003906.339844.011719.507813.261718-6.410157 5.4375-11.414063 11.917968-11.414063 6.480469 0 11.652344 5.003906 11.917969 11.414063.003906-.167969.007813-.335938.007813-.507813 0-.113281 0-.226562-.003907-.339844 0 .058594-.003906.121094-.003906.183594-.265625-6.40625-5.4375-11.414062-11.917969-11.414062zm-17.175781 12.269531c-.003906.105469-.003906.214844-.003906.320313 0 6.671874 3.800781 12.476562 9.371093 15.3125.867188.453124 1.914063.386718 2.71875-.171876.800782-.558593 1.226563-1.515624 1.101563-2.488281-.105469.855469-.625 1.601563-1.386719 2-.761718.394531-1.671875.398438-2.433594 0-5.476562-2.789062-9.242187-8.445312-9.367187-14.972656zm34.351563 0c-.128907 6.527344-3.890626 12.183594-9.371094 14.972656-.761719.398438-1.667969.398438-2.429688 0-.761718-.398437-1.28125-1.140625-1.390625-1.992187-.121093.96875.304688 1.925781 1.105469 2.480468.804688.558594 1.847656.625 2.714844.171876 5.574218-2.835938 9.375-8.640626 9.375-15.3125 0-.105469-.003906-.214844-.003906-.320313zm0 0" fill="#fff" fill-opacity=".392157"/><path d="m254.006994-105.010503c-75.774014 0-137.424377 61.650362-137.424377 137.424376 0 53.338657 30.403347 99.802969 74.961591 122.488303 6.718109 3.530913 14.779839 3.155949 21.15423-.93741 6.374392-4.093359 10.030292-11.31142 9.592834-18.841951-.437458-7.561778-4.905781-14.311133-11.686384-17.654564-30.903299-15.717249-52.026282-47.589206-52.026282-85.054378 0-53.213668 42.183472-95.428387 95.428388-95.428387 53.213668 0 95.39714 42.214719 95.39714 95.428387 0 37.465172-21.091736 69.337129-52.026282 85.054378-6.780603 3.343431-11.248926 10.092786-11.686384 17.654564-.437458 7.530531 3.249689 14.748592 9.624081 18.841951 6.343144 4.093359 14.436121 4.468323 21.122983.93741 44.589492-22.685334 74.992838-69.149646 74.992838-122.488303 0-75.774014-61.650363-137.424376-137.424376-137.424376zm0 0" fill="none" stroke="#212121" stroke-linecap="round" stroke-linejoin="round" stroke-width="3" transform="matrix(.125012 0 0 .125012 0 26.877566)"/><path d="m31.753906 13.894531c-9.472656 0-17.179687 7.707031-17.179687 17.179688 0 .109375 0 .21875.003906.328125.167969-9.328125 7.808594-16.867188 17.175781-16.867188 1.335938-.019531 2.476563.972656 2.640625 2.300782.09375-.753907-.148437-1.507813-.652343-2.070313-.507813-.5625-1.230469-.878906-1.988282-.871094zm-11.925781 17.492188c0 .109375-.003906.21875-.003906.328125 0 4.683594 2.640625 8.667968 6.503906 10.632812.792969.390625 1.335937 1.15625 1.445313 2.03125.132812-1.105468-.445313-2.179687-1.445313-2.671875-3.777344-1.921875-6.382813-5.773437-6.5-10.320312zm0 0" fill="#fff" fill-opacity=".392157"/><path d="m34.394531 16.046875c-.160156 1.328125-1.300781 2.324219-2.640625 2.304687-6.65625 0-11.929687 5.277344-11.929687 11.929688 0 .105469.003906.210938.003906.316406.171875-6.496094 5.382813-11.597656 11.925781-11.597656.757813.011719 1.488282-.308594 1.996094-.875.503906-.566406.742188-1.324219.644531-2.078125zm-19.816406 14.5625c-.003906.109375-.003906.214844-.003906.320313 0 6.667968 3.800781 12.476562 9.371093 15.3125.867188.453124 1.914063.390624 2.71875-.167969.800782-.558594 1.230469-1.515625 1.109376-2.484375-.109376.855468-.625 1.605468-1.390626 2.003906-.761718.398438-1.671874.398438-2.4375 0-5.480468-2.789062-9.246093-8.453125-9.367187-14.984375zm0 0" fill-opacity=".235294"/><path d="m254.006994-105.010503c-75.774014 0-137.424377 61.650362-137.424377 137.424376 0 53.338657 30.403347 99.802969 74.961591 122.488303 6.718109 3.530913 14.779839 3.155949 21.15423-.93741 6.374392-4.093359 10.030292-11.31142 9.592834-18.841951-.437458-7.561778-4.905781-14.311133-11.686384-17.654564-30.903299-15.717249-52.026282-47.589206-52.026282-85.054378 0-53.213668 42.183472-95.428387 95.428388-95.428387 7.561777.124988 14.623603-3.843383 18.435739-10.405256 3.843383-6.530627 3.843383-14.623604 0-21.185477-3.812136-6.530626-10.873962-10.498998-18.435739-10.405256zm0 0" fill="none" stroke="#212121" stroke-linecap="round" stroke-linejoin="round" stroke-width="3" transform="matrix(.125012 0 0 .125012 0 26.877566)"/></svg>

<?xml version="1.0" encoding="UTF-8"?>
<svg xmlns="http://www.w3.org/2000/svg" xmlns:xlink="http://www.w3.org/1999/xlink" width="64px" height="64px" viewBox="0 0 64 64" version="1.1">
<defs>
<linearGradient id="linear0" gradientUnits="userSpaceOnUse" x1="254" y1="233.5" x2="254" y2="254.666672" gradientTransform="matrix(0.125012,0,0,0.125012,-0.00000763012,26.87757)">
<stop offset="0" style="stop-color:rgb(0%,0%,0%);stop-opacity:0.27451;"/>
<stop offset="1" style="stop-color:rgb(0%,0%,0%);stop-opacity:0;"/>
</linearGradient>
<radialGradient id="radial0" gradientUnits="userSpaceOnUse" cx="450.908936" cy="189.579361" fx="450.908936" fy="189.579361" r="21.166656" gradientTransform="matrix(0.000000348341,-0.156265,-0.281277,-0.000000203077,104.261296,127.190665)">
<stop offset="0" style="stop-color:rgb(0%,0%,0%);stop-opacity:0.313726;"/>
<stop offset="0.222222" style="stop-color:rgb(0%,0%,0%);stop-opacity:0.27451;"/>
<stop offset="1" style="stop-color:rgb(0%,0%,0%);stop-opacity:0;"/>
</radialGradient>
<radialGradient id="radial1" gradientUnits="userSpaceOnUse" cx="450.908936" cy="189.579361" fx="450.908936" fy="189.579361" r="21.166656" gradientTransform="matrix(-0.000000348341,0.156265,0.281277,0.000000203077,-40.755227,-15.054958)">
<stop offset="0" style="stop-color:rgb(0%,0%,0%);stop-opacity:0.313726;"/>
<stop offset="0.222222" style="stop-color:rgb(0%,0%,0%);stop-opacity:0.27451;"/>
<stop offset="1" style="stop-color:rgb(0%,0%,0%);stop-opacity:0;"/>
</radialGradient>
<radialGradient id="radial2" gradientUnits="userSpaceOnUse" cx="450.908936" cy="189.579361" fx="450.908936" fy="189.579361" r="21.166656" gradientTransform="matrix(-0.000000348341,-0.156265,0.281277,-0.000000203077,-40.755227,127.190665)">
<stop offset="0" style="stop-color:rgb(0%,0%,0%);stop-opacity:0.313726;"/>
<stop offset="0.222222" style="stop-color:rgb(0%,0%,0%);stop-opacity:0.27451;"/>
<stop offset="1" style="stop-color:rgb(0%,0%,0%);stop-opacity:0;"/>
</radialGradient>
<radialGradient id="radial3" gradientUnits="userSpaceOnUse" cx="450.908936" cy="189.579361" fx="450.908936" fy="189.579361" r="21.166656" gradientTransform="matrix(0.000000348341,0.156265,-0.281277,0.000000203077,104.261293,-15.054959)">
<stop offset="0" style="stop-color:rgb(0%,0%,0%);stop-opacity:0.313726;"/>
<stop offset="0.222222" style="stop-color:rgb(0%,0%,0%);stop-opacity:0.27451;"/>
<stop offset="1" style="stop-color:rgb(0%,0%,0%);stop-opacity:0;"/>
</radialGradient>
<linearGradient id="linear1" gradientUnits="userSpaceOnUse" x1="169.333328" y1="233.5" x2="169.333328" y2="-168.666656" gradientTransform="matrix(0.125012,0,0,0.125012,0,26.877566)">
<stop offset="0" style="stop-color:rgb(25.882354%,25.882354%,25.882354%);stop-opacity:1;"/>
<stop offset="1" style="stop-color:rgb(38.039216%,38.039216%,38.039216%);stop-opacity:1;"/>
</linearGradient>
</defs>
<g id="surface1">
<path style=" stroke:none;fill-rule:nonzero;fill:url(#linear0);" d="M 11.90625 55.871094 L 51.597656 55.871094 L 51.597656 58.8125 L 11.90625 58.8125 Z M 11.90625 55.871094 "/>
<path style=" stroke:none;fill-rule:nonzero;fill:url(#radial0);" d="M 51.597656 56.066406 L 56.890625 56.066406 L 56.890625 53.421875 L 51.597656 53.421875 Z M 51.597656 56.066406 "/>
<path style=" stroke:none;fill-rule:nonzero;fill:url(#radial1);" d="M 11.90625 56.066406 L 6.613281 56.066406 L 6.613281 58.714844 L 11.90625 58.714844 Z M 11.90625 56.066406 "/>
<path style=" stroke:none;fill-rule:nonzero;fill:url(#radial2);" d="M 11.90625 56.066406 L 6.613281 56.066406 L 6.613281 53.421875 L 11.90625 53.421875 Z M 11.90625 56.066406 "/>
<path style=" stroke:none;fill-rule:nonzero;fill:url(#radial3);" d="M 51.597656 56.066406 L 56.890625 56.066406 L 56.890625 58.714844 L 51.597656 58.714844 Z M 51.597656 56.066406 "/>
<path style=" stroke:none;fill-rule:nonzero;fill:url(#linear1);" d="M 9.261719 5.792969 L 54.246094 5.792969 C 55.707031 5.792969 56.890625 6.976562 56.890625 8.4375 L 56.890625 53.421875 C 56.890625 54.882812 55.707031 56.066406 54.246094 56.066406 L 9.261719 56.066406 C 7.800781 56.066406 6.613281 54.882812 6.613281 53.421875 L 6.613281 8.4375 C 6.613281 6.976562 7.800781 5.792969 9.261719 5.792969 Z M 9.261719 5.792969 "/>
<path style=" stroke:none;fill-rule:nonzero;fill:rgb(90.196079%,90.196079%,90.196079%);fill-opacity:0.392157;" d="M 9.261719 5.792969 C 7.796875 5.792969 6.613281 6.972656 6.613281 8.4375 L 6.613281 8.769531 C 6.613281 7.304688 7.796875 6.121094 9.261719 6.121094 L 54.246094 6.121094 C 55.710938 6.121094 56.890625 7.304688 56.890625 8.769531 L 56.890625 8.4375 C 56.890625 6.972656 55.710938 5.792969 54.246094 5.792969 Z M 9.261719 5.792969 "/>
<path style=" stroke:none;fill-rule:nonzero;fill:rgb(0%,0%,0%);fill-opacity:0.196078;" d="M 9.261719 56.066406 C 7.796875 56.066406 6.613281 54.886719 6.613281 53.421875 L 6.613281 53.089844 C 6.613281 54.558594 7.796875 55.738281 9.261719 55.738281 L 54.246094 55.738281 C 55.710938 55.738281 56.890625 54.558594 56.890625 53.089844 L 56.890625 53.421875 C 56.890625 54.886719 55.710938 56.066406 54.246094 56.066406 Z M 9.261719 56.066406 "/>
<path style="fill:none;stroke-width:3;stroke-linecap:round;stroke-linejoin:miter;stroke:rgb(12.941177%,12.941177%,12.941177%);stroke-opacity:1;stroke-miterlimit:4;" d="M 74.086675 -168.660675 L 433.927312 -168.660675 C 445.613696 -168.660675 455.081542 -159.192829 455.081542 -147.506445 L 455.081542 212.334192 C 455.081542 224.020576 445.613696 233.488421 433.927312 233.488421 L 74.086675 233.488421 C 62.400291 233.488421 52.901198 224.020576 52.901198 212.334192 L 52.901198 -147.506445 C 52.901198 -159.192829 62.400291 -168.660675 74.086675 -168.660675 Z M 74.086675 -168.660675 " transform="matrix(0.125012,0,0,0.125012,0,26.877566)"/>
<path style=" stroke:none;fill-rule:nonzero;fill:rgb(0%,0%,0%);fill-opacity:0.235294;" d="M 31.753906 13.75 C 22.28125 13.75 14.574219 21.457031 14.574219 30.929688 C 14.574219 31.039062 14.574219 31.148438 14.578125 31.257812 C 14.746094 21.929688 22.386719 14.390625 31.753906 14.390625 C 41.121094 14.390625 48.761719 21.929688 48.929688 31.257812 C 48.929688 31.148438 48.933594 31.039062 48.933594 30.929688 C 48.933594 21.457031 41.226562 13.75 31.753906 13.75 Z M 19.828125 31.242188 C 19.828125 31.351562 19.824219 31.460938 19.824219 31.570312 C 19.824219 36.253906 22.464844 40.238281 26.328125 42.203125 C 27.121094 42.59375 27.664062 43.359375 27.773438 44.234375 C 27.90625 43.128906 27.328125 42.054688 26.328125 41.5625 C 22.550781 39.640625 19.945312 35.789062 19.828125 31.242188 Z M 43.675781 31.242188 C 43.5625 35.789062 40.953125 39.640625 37.175781 41.5625 C 36.179688 42.054688 35.601562 43.125 35.734375 44.230469 C 35.84375 43.355469 36.386719 42.59375 37.175781 42.203125 C 41.042969 40.238281 43.679688 36.253906 43.679688 31.570312 C 43.679688 31.460938 43.679688 31.351562 43.675781 31.242188 Z M 43.675781 31.242188 "/>
<path style=" stroke:none;fill-rule:nonzero;fill:rgb(0%,0%,0%);fill-opacity:0.235294;" d="M 31.753906 13.75 C 22.28125 13.75 14.574219 21.457031 14.574219 30.929688 C 14.574219 37.597656 18.375 43.40625 23.945312 46.242188 C 24.785156 46.683594 25.792969 46.636719 26.589844 46.125 C 27.386719 45.613281 27.84375 44.710938 27.789062 43.769531 C 27.734375 42.824219 27.175781 41.980469 26.328125 41.5625 C 22.464844 39.597656 19.824219 35.613281 19.824219 30.929688 C 19.824219 24.277344 25.097656 19 31.753906 19 C 38.40625 19 43.679688 24.277344 43.679688 30.929688 C 43.679688 35.613281 41.042969 39.597656 37.175781 41.5625 C 36.328125 41.980469 35.769531 42.824219 35.714844 43.769531 C 35.660156 44.710938 36.121094 45.613281 36.917969 46.125 C 37.710938 46.636719 38.722656 46.683594 39.558594 46.242188 C 45.132812 43.40625 48.933594 37.597656 48.933594 30.929688 C 48.933594 21.457031 41.226562 13.75 31.753906 13.75 Z M 31.753906 13.75 "/>
<path style=" stroke:none;fill-rule:nonzero;fill:rgb(14.901961%,65.098041%,60.392159%);fill-opacity:1;" d="M 31.753906 13.75 C 22.28125 13.75 14.574219 21.457031 14.574219 30.929688 C 14.574219 37.597656 18.375 43.40625 23.945312 46.242188 C 24.785156 46.683594 25.792969 46.636719 26.589844 46.125 C 27.386719 45.613281 27.84375 44.710938 27.789062 43.769531 C 27.734375 42.824219 27.175781 41.980469 26.328125 41.5625 C 22.464844 39.597656 19.824219 35.613281 19.824219 30.929688 C 19.824219 24.277344 25.097656 19 31.753906 19 C 32.699219 19.015625 33.582031 18.519531 34.058594 17.699219 C 34.539062 16.882812 34.539062 15.871094 34.058594 15.050781 C 33.582031 14.234375 32.699219 13.738281 31.753906 13.75 Z M 31.753906 13.75 "/>
<path style=" stroke:none;fill-rule:nonzero;fill:rgb(100%,100%,100%);fill-opacity:0.392157;" d="M 31.753906 19.089844 C 25.273438 19.089844 20.097656 24.097656 19.835938 30.503906 C 19.832031 30.441406 19.832031 30.378906 19.828125 30.320312 C 19.828125 30.433594 19.824219 30.546875 19.824219 30.660156 C 19.824219 30.832031 19.828125 31 19.835938 31.167969 C 20.097656 24.757812 25.273438 19.753906 31.753906 19.753906 C 38.234375 19.753906 43.40625 24.757812 43.671875 31.167969 C 43.675781 31 43.679688 30.832031 43.679688 30.660156 C 43.679688 30.546875 43.679688 30.433594 43.675781 30.320312 C 43.675781 30.378906 43.671875 30.441406 43.671875 30.503906 C 43.40625 24.097656 38.234375 19.089844 31.753906 19.089844 Z M 14.578125 31.359375 C 14.574219 31.464844 14.574219 31.574219 14.574219 31.679688 C 14.574219 38.351562 18.375 44.15625 23.945312 46.992188 C 24.8125 47.445312 25.859375 47.378906 26.664062 46.820312 C 27.464844 46.261719 27.890625 45.304688 27.765625 44.332031 C 27.660156 45.1875 27.140625 45.933594 26.378906 46.332031 C 25.617188 46.726562 24.707031 46.730469 23.945312 46.332031 C 18.46875 43.542969 14.703125 37.886719 14.578125 31.359375 Z M 48.929688 31.359375 C 48.800781 37.886719 45.039062 43.542969 39.558594 46.332031 C 38.796875 46.730469 37.890625 46.730469 37.128906 46.332031 C 36.367188 45.933594 35.847656 45.191406 35.738281 44.339844 C 35.617188 45.308594 36.042969 46.265625 36.84375 46.820312 C 37.648438 47.378906 38.691406 47.445312 39.558594 46.992188 C 45.132812 44.15625 48.933594 38.351562 48.933594 31.679688 C 48.933594 31.574219 48.929688 31.464844 48.929688 31.359375 Z M 48.929688 31.359375 "/>
<path style="fill:none;stroke-width:3;stroke-linecap:round;stroke-linejoin:round;stroke:rgb(12.941177%,12.941177%,12.941177%);stroke-opacity:1;stroke-miterlimit:4;" d="M 254.006994 -105.010503 C 178.23298 -105.010503 116.582617 -43.360141 116.582617 32.413873 C 116.582617 85.75253 146.985964 132.216842 191.544208 154.902176 C 198.262317 158.433089 206.324047 158.058125 212.698438 153.964766 C 219.07283 149.871407 222.72873 142.653346 222.291272 135.122815 C 221.853814 127.561037 217.385491 120.811682 210.604888 117.468251 C 179.701589 101.751002 158.578606 69.879045 158.578606 32.413873 C 158.578606 -20.799795 200.762078 -63.014514 254.006994 -63.014514 C 307.220662 -63.014514 349.404134 -20.799795 349.404134 32.413873 C 349.404134 69.879045 328.312398 101.751002 297.377852 117.468251 C 290.597249 120.811682 286.128926 127.561037 285.691468 135.122815 C 285.25401 142.653346 288.941157 149.871407 295.315549 153.964766 C 301.658693 158.058125 309.75167 158.433089 316.438532 154.902176 C 361.028024 132.216842 391.43137 85.75253 391.43137 32.413873 C 391.43137 -43.360141 329.781007 -105.010503 254.006994 -105.010503 Z M 254.006994 -105.010503 " transform="matrix(0.125012,0,0,0.125012,0,26.877566)"/>
<path style=" stroke:none;fill-rule:nonzero;fill:rgb(100%,100%,100%);fill-opacity:0.392157;" d="M 31.753906 13.894531 C 22.28125 13.894531 14.574219 21.601562 14.574219 31.074219 C 14.574219 31.183594 14.574219 31.292969 14.578125 31.402344 C 14.746094 22.074219 22.386719 14.535156 31.753906 14.535156 C 33.089844 14.515625 34.230469 15.507812 34.394531 16.835938 C 34.488281 16.082031 34.246094 15.328125 33.742188 14.765625 C 33.234375 14.203125 32.511719 13.886719 31.753906 13.894531 Z M 19.828125 31.386719 C 19.828125 31.496094 19.824219 31.605469 19.824219 31.714844 C 19.824219 36.398438 22.464844 40.382812 26.328125 42.347656 C 27.121094 42.738281 27.664062 43.503906 27.773438 44.378906 C 27.90625 43.273438 27.328125 42.199219 26.328125 41.707031 C 22.550781 39.785156 19.945312 35.933594 19.828125 31.386719 Z M 19.828125 31.386719 "/>
<path style=" stroke:none;fill-rule:nonzero;fill:rgb(0%,0%,0%);fill-opacity:0.235294;" d="M 34.394531 16.046875 C 34.234375 17.375 33.09375 18.371094 31.753906 18.351562 C 25.097656 18.351562 19.824219 23.628906 19.824219 30.28125 C 19.824219 30.386719 19.828125 30.492188 19.828125 30.597656 C 20 24.101562 25.210938 19 31.753906 19 C 32.511719 19.011719 33.242188 18.691406 33.75 18.125 C 34.253906 17.558594 34.492188 16.800781 34.394531 16.046875 Z M 14.578125 30.609375 C 14.574219 30.71875 14.574219 30.824219 14.574219 30.929688 C 14.574219 37.597656 18.375 43.40625 23.945312 46.242188 C 24.8125 46.695312 25.859375 46.632812 26.664062 46.074219 C 27.464844 45.515625 27.894531 44.558594 27.773438 43.589844 C 27.664062 44.445312 27.148438 45.195312 26.382812 45.59375 C 25.621094 45.992188 24.710938 45.992188 23.945312 45.59375 C 18.464844 42.804688 14.699219 37.140625 14.578125 30.609375 Z M 14.578125 30.609375 "/>
<path style="fill:none;stroke-width:3;stroke-linecap:round;stroke-linejoin:round;stroke:rgb(12.941177%,12.941177%,12.941177%);stroke-opacity:1;stroke-miterlimit:4;" d="M 254.006994 -105.010503 C 178.23298 -105.010503 116.582617 -43.360141 116.582617 32.413873 C 116.582617 85.75253 146.985964 132.216842 191.544208 154.902176 C 198.262317 158.433089 206.324047 158.058125 212.698438 153.964766 C 219.07283 149.871407 222.72873 142.653346 222.291272 135.122815 C 221.853814 127.561037 217.385491 120.811682 210.604888 117.468251 C 179.701589 101.751002 158.578606 69.879045 158.578606 32.413873 C 158.578606 -20.799795 200.762078 -63.014514 254.006994 -63.014514 C 261.568771 -62.889526 268.630597 -66.857897 272.442733 -73.41977 C 276.286116 -79.950397 276.286116 -88.043374 272.442733 -94.605247 C 268.630597 -101.135873 261.568771 -105.104245 254.006994 -105.010503 Z M 254.006994 -105.010503 " transform="matrix(0.125012,0,0,0.125012,0,26.877566)"/>
</g>
</svg>
